assets/svg/3297.svg

<svg xmlns="http://www.w3.org/2000/svg" viewBox="0 0 64 64" enable-background="new 0 0 64 64"><path fill="#ec1c24" d="m58.43 13.898c10.02 14.583 6.313 34.518-8.265 44.531-14.584 10.02-34.519 6.316-44.534-8.267-10.01-14.579-6.314-34.518 8.268-44.532 14.579-10.01 34.517-6.312 44.531 8.268"/><path fill="#be1e2d" d="m27.775.292c-16.271 2.161-28.478 16.442-27.738 33.15.785 17.673 15.742 31.362 33.415 30.583 11.521-.512 21.342-7.05 26.573-16.431-46.12 2.774-56.47-27.777-32.25-47.3"/><g fill="#fff"><path d="m14 18.256c4.691.209 9.378.596 14.08.61 2.357.006 2.357-3.65 0-3.654-4.701-.016-9.388-.403-14.08-.614-2.359-.107-2.35 3.549 0 3.658l0 0"/><path d="m26.723 16.55c-1.354 3.68-3.868 6.837-6.361 9.809-1.242 1.477-2.518 2.926-3.75 4.411-1.271 1.528-2.304 3.195-4.148 4.076-2.126 1.019-.269 4.169 1.844 3.158 1.872-.893 3.149-2.422 4.393-4.03 1.345-1.731 2.832-3.354 4.247-5.03 2.933-3.475 5.713-7.119 7.301-11.419.817-2.217-2.715-3.169-3.526-.977l0 0"/><path d="m10.734 38.457c6.825.355 13.582-1.173 20.407-.817 2.355.123 2.343-3.532 0-3.654-6.825-.357-13.582 1.171-20.407.815-2.357-.122-2.347 3.53 0 3.656l0 0"/><path d="m19.11 28.874c0 9.388 0 18.773 0 28.16 0 2.357 3.654 2.357 3.654 0 0-9.389 0-18.774 0-28.16 0-2.357-3.654-2.357-3.654 0l0 0"/><path d="m22.562 16.428c0-2.586 0-5.171 0-7.755 0-2.357-3.657-2.357-3.657 0 0 2.584 0 5.169 0 7.755-.0001 2.357 3.657 2.357 3.657 0l0 0"/><path d="m31.556 13.571c0 3.739 0 7.481 0 11.22 0 2.361 3.658 2.361 3.658 0 0-3.739 0-7.481 0-11.22 0-2.36-3.658-2.36-3.658 0l0 0"/><path d="m33.791 26.825c5.02.391 10.06.407 15.1.407 2.357.004 2.357-3.653 0-3.653-5.04 0-10.08-.02-15.1-.411-2.352-.18-2.332 3.477 0 3.657l0 0"/><path d="m50.923 24.996c.218-3.949.612-7.885.817-11.834.123-2.357-3.534-2.346-3.656 0-.201 3.949-.601 7.885-.813 11.834-.13 2.358 3.526 2.346 3.652 0l0 0"/><path d="m49.02 10.992c-4.963.756-10.03.354-15.02.342-2.357-.006-2.357 3.648 0 3.656 5.354.012 10.68.338 15.995-.474.987-.152 1.517-1.375 1.275-2.249-.285-1.044-1.264-1.427-2.247-1.275l0 0"/><path d="m36.455 26.02c-.087 2.59.048 5.187-.118 7.773-.154 2.472-.911 4.628-2.104 6.776-1.85 3.326-4.111 7.881-7.866 9.401-.922.371-1.562 1.202-1.275 2.247.241.876 1.323 1.65 2.247 1.275 4.737-1.915 7.51-6.539 9.903-10.81 1.386-2.484 2.274-4.891 2.642-7.718.387-2.958.126-5.975.229-8.946.077-2.355-3.579-2.349-3.658.002l0 0"/><path d="m41.964 26.426c.434 4.02-.129 8.04-.471 12.04-.323 3.768-.478 7.918 1.066 11.451 1.062 2.437 3.206 4.06 5.931 3.602 2.492-.421 4.593-2.334 6.188-4.172 1.531-1.774-1.043-4.371-2.587-2.586-1.169 1.353-2.559 2.797-4.359 3.194-.395.089-.723-.006-1.121-.381-.846-.79-1.134-2.176-1.347-3.254-.628-3.142-.253-6.479.043-9.637.328-3.418.684-6.833.312-10.261-.106-.991-.75-1.828-1.83-1.828-.909.0001-1.933.836-1.825 1.829l0 0"/><path d="m19.83 31.421c-.104.023-3.244 3.449-3.244 3.449s.373 1.32.705 1.353c.332.031 2.871.261 2.991.178.126-.083.908-1.343.908-1.343l-1.36-3.637"/></g></svg>

<?xml version="1.0" encoding="UTF-8" standalone="no"?>
<!-- Generator: Adobe Illustrator 16.0.0, SVG Export Plug-In . SVG Version: 6.00 Build 0)  -->

<svg
   xmlns:dc="http://purl.org/dc/elements/1.1/"
   xmlns:cc="http://creativecommons.org/ns#"
   xmlns:rdf="http://www.w3.org/1999/02/22-rdf-syntax-ns#"
   xmlns:svg="http://www.w3.org/2000/svg"
   xmlns="http://www.w3.org/2000/svg"
   xmlns:sodipodi="http://sodipodi.sourceforge.net/DTD/sodipodi-0.dtd"
   xmlns:inkscape="http://www.inkscape.org/namespaces/inkscape"
   version="1.1"
   id="Layer_1"
   x="0px"
   y="0px"
   width="64px"
   height="64px"
   viewBox="0 0 64 64"
   enable-background="new 0 0 64 64"
   xml:space="preserve"
   inkscape:version="0.48.5 r10040"
   sodipodi:docname="3297.svg"
   inkscape:export-filename="D:\TESTINGEMOJI\SVGTEST\3297.png"
   inkscape:export-xdpi="90"
   inkscape:export-ydpi="90"><metadata
   id="metadata3880"><rdf:RDF><cc:Work
       rdf:about=""><dc:format>image/svg+xml</dc:format><dc:type
         rdf:resource="http://purl.org/dc/dcmitype/StillImage" /><dc:title></dc:title></cc:Work></rdf:RDF></metadata><defs
   id="defs3878" /><sodipodi:namedview
   pagecolor="#ffffff"
   bordercolor="#666666"
   borderopacity="1"
   objecttolerance="10"
   gridtolerance="10"
   guidetolerance="10"
   inkscape:pageopacity="0"
   inkscape:pageshadow="2"
   inkscape:window-width="640"
   inkscape:window-height="480"
   id="namedview3876"
   showgrid="false"
   inkscape:zoom="3.6875"
   inkscape:cx="32"
   inkscape:cy="32"
   inkscape:window-x="649"
   inkscape:window-y="327"
   inkscape:window-maximized="0"
   inkscape:current-layer="Layer_1" />
<g
   id="g3818">
	<g
   id="g3820">
		<path
   fill="#EC1C24"
   d="M58.43,13.898c10.017,14.583,6.313,34.518-8.265,44.531c-14.584,10.017-34.519,6.316-44.534-8.267    C-4.383,35.583-0.683,15.644,13.899,5.63C28.478-4.384,48.416-0.682,58.43,13.898z"
   id="path3822" />
		<path
   fill="#BE1E2D"
   d="M27.775,0.292C11.504,2.453-0.703,16.734,0.037,33.442c0.785,17.673,15.742,31.362,33.415,30.583    c11.521-0.512,21.342-7.047,26.573-16.431C13.901,50.368,3.557,19.817,27.775,0.292z"
   id="path3824" />
	</g>
	<g
   id="g3826">
		<g
   id="g3828">
			<g
   id="g3830">
				<path
   fill="#FFFFFF"
   d="M14,18.256c4.691,0.209,9.378,0.596,14.079,0.61c2.357,0.006,2.357-3.65,0-3.654      c-4.701-0.016-9.388-0.403-14.079-0.614C11.641,14.491,11.65,18.147,14,18.256L14,18.256z"
   id="path3832" />
			</g>
			<g
   id="g3834">
				<path
   fill="#FFFFFF"
   d="M26.723,16.55c-1.354,3.68-3.868,6.837-6.361,9.809c-1.242,1.477-2.518,2.926-3.75,4.411      c-1.271,1.528-2.304,3.195-4.148,4.076c-2.126,1.019-0.269,4.169,1.844,3.158c1.872-0.893,3.149-2.422,4.393-4.029      c1.345-1.731,2.832-3.354,4.247-5.029c2.933-3.475,5.713-7.119,7.301-11.419C31.066,15.31,27.534,14.358,26.723,16.55      L26.723,16.55z"
   id="path3836" />
			</g>
			<g
   id="g3838">
				<path
   fill="#FFFFFF"
   d="M10.734,38.457c6.825,0.355,13.582-1.173,20.407-0.817c2.355,0.123,2.343-3.532,0-3.654      c-6.825-0.357-13.582,1.171-20.407,0.815C8.377,34.679,8.387,38.331,10.734,38.457L10.734,38.457z"
   id="path3840" />
			</g>
			<g
   id="g3842">
				<path
   fill="#FFFFFF"
   d="M19.109,28.874c0,9.388,0,18.773,0,28.162c0,2.357,3.654,2.357,3.654,0c0-9.389,0-18.774,0-28.162      C22.763,26.517,19.109,26.517,19.109,28.874L19.109,28.874z"
   id="path3844" />
			</g>
			<g
   id="g3846">
				<path
   fill="#FFFFFF"
   d="M22.562,16.428c0-2.586,0-5.171,0-7.755c0-2.357-3.657-2.357-3.657,0c0,2.584,0,5.169,0,7.755      C18.904,18.785,22.562,18.785,22.562,16.428L22.562,16.428z"
   id="path3848" />
			</g>
			<g
   id="g3850">
				<path
   fill="#FFFFFF"
   d="M31.556,13.571c0,3.739,0,7.481,0,11.22c0,2.361,3.658,2.361,3.658,0c0-3.739,0-7.481,0-11.22      C35.214,11.211,31.556,11.211,31.556,13.571L31.556,13.571z"
   id="path3852" />
			</g>
			<g
   id="g3854">
				<path
   fill="#FFFFFF"
   d="M33.791,26.825c5.025,0.391,10.063,0.407,15.103,0.407c2.357,0.004,2.357-3.653,0-3.653      c-5.039,0-10.077-0.02-15.103-0.411C31.439,22.988,31.459,26.645,33.791,26.825L33.791,26.825z"
   id="path3856" />
			</g>
			<g
   id="g3858">
				<path
   fill="#FFFFFF"
   d="M50.923,24.996c0.218-3.949,0.612-7.885,0.817-11.834c0.123-2.357-3.534-2.346-3.656,0      c-0.201,3.949-0.601,7.885-0.813,11.834C47.141,27.354,50.797,27.342,50.923,24.996L50.923,24.996z"
   id="path3860" />
			</g>
			<g
   id="g3862">
				<path
   fill="#FFFFFF"
   d="M49.02,10.992c-4.963,0.756-10.029,0.354-15.023,0.342c-2.357-0.006-2.357,3.648,0,3.656      c5.354,0.012,10.68,0.338,15.995-0.474c0.987-0.152,1.517-1.375,1.275-2.249C50.982,11.223,50.003,10.84,49.02,10.992      L49.02,10.992z"
   id="path3864" />
			</g>
			<g
   id="g3866">
				<path
   fill="#FFFFFF"
   d="M36.455,26.017c-0.087,2.59,0.048,5.187-0.118,7.773c-0.154,2.472-0.911,4.628-2.104,6.776      c-1.85,3.326-4.111,7.881-7.866,9.401c-0.922,0.371-1.562,1.202-1.275,2.247c0.241,0.876,1.323,1.65,2.247,1.275      c4.737-1.915,7.51-6.539,9.903-10.81c1.386-2.484,2.274-4.891,2.642-7.718c0.387-2.958,0.126-5.975,0.229-8.946      C40.19,23.66,36.534,23.666,36.455,26.017L36.455,26.017z"
   id="path3868" />
			</g>
			<g
   id="g3870">
				<path
   fill="#FFFFFF"
   d="M41.964,26.426c0.434,4.023-0.129,8.035-0.471,12.043c-0.323,3.768-0.478,7.918,1.066,11.451      c1.062,2.437,3.206,4.06,5.931,3.602c2.492-0.421,4.593-2.334,6.188-4.172c1.531-1.774-1.043-4.371-2.587-2.586      c-1.169,1.353-2.559,2.797-4.359,3.194c-0.395,0.089-0.723-0.006-1.121-0.381c-0.846-0.79-1.134-2.176-1.347-3.254      c-0.628-3.142-0.253-6.479,0.043-9.637c0.328-3.418,0.684-6.833,0.312-10.261c-0.106-0.991-0.75-1.828-1.83-1.828      C42.88,24.598,41.856,25.433,41.964,26.426L41.964,26.426z"
   id="path3872" />
			</g>
		</g>
		<path
   fill="#FFFFFF"
   d="M19.83,31.421c-0.104,0.023-3.244,3.449-3.244,3.449s0.373,1.32,0.705,1.353    c0.332,0.031,2.871,0.261,2.991,0.178c0.126-0.083,0.908-1.343,0.908-1.343L19.83,31.421z"
   id="path3874" />
	</g>
</g>
</svg>
